X:553
%%etbk:tnset id:286,pos:1,rep:3x,ant:Intro (16 Bar): Bou - Tempo: 102
%%etbk:color #ffccbf
%%etbk:pldat 2016-06-09T18:01,2016-06-08T15:14,2016-06-07T15:15,2016-06-04T14:13,2016-06-01T15:42,2016-05-31T15:21,2016-05-29T11:00,2016-05-19T18:02,2016-05-18T15:13,2016-05-17T15:23,2016-05-16T13:58,2016-05-14T14:52,2016-05-13T15:16,2016-05-11T15:15,2016-05-09T18:11,2016-03-02T15:31,2016-03-01T18:20,2016-02-29T18:03,2016-02-27T13:04,2016-02-26T16:52,2016-02-22T17:58,2015-11-20T15:19,2015-11-18T15:14,2015-11-17T16:25,2015-11-15T13:34,2015-11-13T18:11,2015-11-10T16:34,2015-11-08T11:19,2015-09-10T15:35,2015-09-09T15:49,2015-09-08T18:14,2015-09-03T15:14,2015-09-02T15:18,2015-09-01T15:30,2015-08-31T18:01,2015-08-30T13:53,2015-08-26T15:10,2015-08-06T16:41,2015-08-05T15:14,2015-08-04T15:13,2015-08-03T17:33,2015-08-02T11:17,2015-08-01T15:04,2015-07-31T17:19,2015-07-29T15:33,2015-07-20T18:12,2015-06-26T16:31,2015-06-18T18:29,2015-06-17T15:24,2015-06-16T15:08,2015-05-07T18:07,2015-04-16T17:55,2015-04-15T15:18,2015-04-13T17:58,2015-04-12T09:47,2015-04-11T13:15,2015-03-19T17:37,2015-03-16T18:00,2015-03-15T13:13,2015-03-11T15:12,2015-03-09T19:09,2015-02-22T14:23,2015-02-21T15:29,2015-02-19T18:06,2015-02-16T18:38,2015-02-14T13:22,2015-02-10T15:18,2015-01-14T16:11,2015-01-13T16:20,2015-01-10T14:38,2015-01-05T18:19,2014-11-15T15:02,2014-11-13T18:00,2014-10-16T18:37,2014-10-16T18:36,2014-10-14T18:03,2014-10-10T15:24,2014-09-18T18:17,2014-09-13T13:01,2014-08-14T18:26,2014-08-13T19:19,2014-08-12T18:20,2014-08-11T18:34,2014-08-10T13:15,2014-08-06T18:56,2014-08-03T16:04,2014-08-02T15:53,2014-07-29T18:36,2014-07-26T15:16,2014-07-22T18:38,2014-07-20T14:53,2014-07-14T17:07,2014-07-04T11:05,2014-07-02T16:49,2014-06-30T11:09,2014-06-20T15:31,2014-06-19T18:23,2014-06-17T18:17,2014-06-12T18:40,2014-06-10T18:52,2014-06-09T14:08,2014-06-04T16:09,2014-05-28T09:52,2014-05-21T18:18,2014-04-24T18:07,2014-04-23T16:32,2014-04-22T19:33,2014-04-21T15:39,2014-04-18T14:50,2014-04-16T08:59,2014-04-12T11:27,2014-04-09T15:22,2014-04-06T11:09,2014-04-01T16:18,2014-03-23T15:13,2014-03-06T19:27,2014-03-05T18:56,2014-03-04T18:37,2014-03-03T18:40,2014-03-02T15:17,2014-03-01T14:58,2014-02-25T18:46,2014-02-20T18:21,2014-01-30T17:43,2014-01-29T15:28,2014-01-27T18:35,2014-01-26T15:11,2014-01-21T17:55,2014-01-19T14:34,2014-01-18T15:47,2014-01-17T18:19,2014-01-16T18:20,2014-01-15T17:50,2014-01-14T19:07,2014-01-13T18:55,2014-01-12T13:50,2014-01-09T18:33,2014-01-08T16:16,2014-01-07T16:20,2014-01-06T18:10,2014-01-03T15:44,2014-01-02T10:17,2013-12-29T13:39,2013-12-28T14:47,2013-12-27T16:15,2013-12-26T13:47,2013-12-22T16:23,2013-12-21T16:51,2013-12-19T19:53,2013-12-18T16:09,2013-12-17T16:51,2013-12-17T15:55,2013-12-16T18:19,2013-12-15T16:59,2013-12-15T15:10,2013-12-14T16:56
T: Ron Burgundy Tribute
C: Hanneke Cassel
H: Created 2013-12-14 /  Last Modified 2014-01-18
R: reel
M: 4/4
L: 1/8
P: AA-BB-AA-BB-C-AA-BB-D-EE-FF-EE-FF                % play the parts in this order
K: Bmin
P:A 
|: "bm"!3!fede !3!f!1!B!4!a!1!B | !4!ab!1!B!3!f -fe!1!d!2!c | "em"!3!dc!1!G2 !3!dcAd | "f#m"!2!cA!2!cd !4!edc!4!e |
"bm"!3!fede !3!f!1!B!4!a!1!B | !4!ab!1!B!3!f !5!b!3!f!2!d!1!B | "em"!4!gBfg BfgB |1 "f#m"!5!a!2!c!3!e!5!a -a!4!gfe :|2 "f#m"!2!e!1!Az!3!A !5!c!3!A!1!E!3!C ||
P:B 
|: "bm"!2!B,A,B,D !5!F3!3!F | -FEDE FE!1!D!3!C | !2!B,A,B,!5!F "em"!4!E3!2!E | -E2!5!A!1!D !3!CDCA, |
 "bm"!2!B,A,B,D !5!F3D | E3D !2!FD!2!F!3!A | "f#m"!4!cFFF !4!c2!3!Bc |1 "em"!5!d!1!GGG !4!c!3!A!1!E"to B"!3!C :|2 "em"!5!d!1!GGG "f#m"!5!e!1!AA"to A"!5!e||3 "em"!5!d!1!GGG "f#m"!2!!5![Ae]"to C"z3||4 "em"!5!d!1!GGG "f#m"!5!d/c/B !2!A"to D"B||
P:C
|:  "bm"!4!B!2!FBF ABFB | zFBB ABFF !repeatbar2!| z8 | z8 | z8 | z8 | z8 | z8:|
P:D1
|  "f#m"!4!c!1!FFF !4!c!1!F!3!B!4!c | "em"!5!d!1!GGG !5!d/c/B !2!AB !repeatbar2!| z8 | z8 |
"f#"!4!c!2!FFc FFcF | "em"!5!d!1!GGd GGdG !repeatbar2!| z8 | z8 || 
P:D2
K:Bmaj
!4!c!2!FFc FFcF | !5!d!2!FFd FFdF | !4!c!2!FFc FFcF | !5!e!2!FFe FFeF |
!4!c!2!FFc FFcF | !5!d!2!FFd FFdF | !4!B!2!FFB FFBF | !5!e!2!FFe FFeF || 
P:E
K:Bmaj
|: "B"!3!B!4!cB!1!F !2!AB!4!c!5!e | !4!d!1!F!3!c!1!F dFc!1!F | "E"!1!E!2!B!5!e!1!E !4!dE!2!B!3!c | !4!d!1!G!2!G!1!G !3!c!1!F!2!F!1!F |
"B"!3!B!4!cB!1!F !2!AB!4!c!5!e | !4!d!1!F!3!c!1!F dFc!1!F | "E"!1!E!2!B!5!e!1!E !4!dE!2!B!3!c  |1 dGGG "B"B4 :|2 dGGG "B"!3!B2!1!Bc ||
P:F
|: "B"!3!d3B "F#"!2!c2cB | "B"!3!d2dB cBcd | "E"!4!e2!1!EE !4!d!1!GG!2!B | !3!cB!1!GB !3!c!1!F!5!e2 |
"B"d2dB "F#"c2cB | "B"!3!d2!3!ef !2!cB!5!b!4!a | "E"!3!gf!1!e!3!d !4!e3d |1 "F#"!2!c!1!B!2!Gc "B"!3!B2!1!Bc |2 "F#"!2!c!1!B!2!Gc "B"B4 ||


